app/images/icon/guarantee.svg

<svg width="99" height="106" viewBox="0 0 99 106" fill="none" xmlns="http://www.w3.org/2000/svg">
<path d="M95.6939 0H26.3974C24.5775 0 23.0975 1.47998 23.0975 3.29984V26.3987H26.3974V3.29984H39.5967V9.89951H31.3471C30.4364 9.89951 29.6972 10.6387 29.6972 11.5494V26.3987H32.997V13.1993H39.5967V16.4992C39.5967 18.319 41.0767 19.799 42.8965 19.799H79.1947C81.0146 19.799 82.4946 18.319 82.4946 16.4992V13.1993H89.0942V52.7974H92.3941V11.5494C92.3941 10.6387 91.6549 9.89951 90.7442 9.89951H82.4946V3.29984H95.6939V102.295H26.3974V92.3954H23.0975V103.945C23.0975 104.856 23.8367 105.595 24.7475 105.595H95.6939C97.5138 105.595 98.9937 104.115 98.9937 102.295V3.29984C98.9937 1.47998 97.5138 0 95.6939 0ZM79.1947 16.4992H42.8965V3.29984H79.1947V16.4992Z" fill="#0037A1"/>
<path d="M92.3941 56.0972H89.0943V79.196H72.5951C71.6844 79.196 70.9452 79.9352 70.9452 80.8459V95.6952H32.9971V92.3954H29.6973V97.3451C29.6973 98.2559 30.4364 98.995 31.3472 98.995H72.5951C72.671 98.995 72.7469 98.9901 72.8212 98.9802C72.8377 98.9785 72.8542 98.9752 72.8707 98.9719C72.8789 98.9703 72.8872 98.9686 72.8971 98.967C72.9086 98.9653 72.9185 98.962 72.9284 98.9604C72.9433 98.9571 72.9581 98.9554 72.9713 98.9505C72.9763 98.9488 72.9796 98.9488 72.9845 98.9472C73.0291 98.9356 73.0736 98.9241 73.1182 98.9092C73.1198 98.9092 73.1214 98.9076 73.1231 98.9076C73.1693 98.8927 73.2155 98.8746 73.26 98.8548C73.2617 98.8548 73.2633 98.8531 73.2633 98.8531C73.3079 98.8333 73.3524 98.8119 73.3953 98.7871C73.397 98.7871 73.397 98.7855 73.3986 98.7855C73.4184 98.7739 73.4399 98.7624 73.4597 98.7492C73.4679 98.7442 73.4762 98.7393 73.4844 98.7327C73.4976 98.7244 73.5108 98.7162 73.524 98.7063C73.5306 98.7013 73.5372 98.6964 73.5438 98.6914C73.5587 98.6815 73.5719 98.6716 73.5851 98.6617C73.5983 98.6518 73.6098 98.6419 73.623 98.632C73.6313 98.6254 73.6379 98.6205 73.6461 98.6139C73.6659 98.5974 73.6857 98.5809 73.7055 98.5627L91.8546 82.0636C91.8827 82.0388 91.9091 82.0124 91.9338 81.986C91.9404 81.9778 91.9487 81.9712 91.9553 81.9629C91.9767 81.9398 91.9982 81.9151 92.018 81.8903C92.0213 81.8854 92.0262 81.8821 92.0295 81.8771C92.0526 81.8491 92.0741 81.8194 92.0939 81.7913C92.1005 81.7831 92.1054 81.7748 92.112 81.7649C92.1285 81.7418 92.1433 81.7171 92.1582 81.6923C92.1631 81.6841 92.1681 81.6775 92.1714 81.6692C92.1896 81.6379 92.2061 81.6082 92.2209 81.5752C92.2258 81.5669 92.2291 81.557 92.2341 81.5488C92.2456 81.524 92.2572 81.4977 92.2687 81.4713C92.272 81.4614 92.277 81.4531 92.2803 81.4432C92.2935 81.4102 92.305 81.3756 92.3166 81.3409C92.3182 81.336 92.3199 81.331 92.3215 81.3261C92.3314 81.2947 92.3397 81.2634 92.3479 81.232C92.3496 81.2238 92.3512 81.2155 92.3545 81.2073C92.371 81.1347 92.3826 81.0621 92.3892 80.9878C92.3892 80.9796 92.3908 80.9697 92.3908 80.9614C92.3925 80.9317 92.3941 80.9004 92.3958 80.869C92.3958 80.8624 92.3958 80.8542 92.3958 80.8476C92.3958 80.8443 92.3958 80.841 92.3958 80.8377V56.0972H92.3941ZM74.245 82.4958H86.4759L78.4639 89.7802L74.245 93.6146V82.4958Z" fill="#0037A1"/>
<path d="M46.1964 8.24951H49.4962V11.5493H46.1964V8.24951Z" fill="#0037A1"/>
<path d="M72.5951 8.24951H75.8949V11.5493H72.5951V8.24951Z" fill="#0037A1"/>
<path d="M80.8447 26.3984H42.8966C41.9859 26.3984 41.2467 27.1376 41.2467 28.0484V34.648H44.5465V29.6983H79.1948V52.7971H54.446V56.097H80.8447C81.7555 56.097 82.4946 55.3578 82.4946 54.447V28.0484C82.4946 27.1376 81.7555 26.3984 80.8447 26.3984Z" fill="#0037A1"/>
<path d="M52.7961 62.6968H70.9452V65.9966H52.7961V62.6968Z" fill="#0037A1"/>
<path d="M74.245 62.6968H84.1445V65.9966H74.245V62.6968Z" fill="#0037A1"/>
<path d="M47.8463 72.5962H65.9954V75.896H47.8463V72.5962Z" fill="#0037A1"/>
<path d="M69.2953 72.5962H84.1445V75.896H69.2953V72.5962Z" fill="#0037A1"/>
<path d="M39.5967 82.4961H67.6453V85.7959H39.5967V82.4961Z" fill="#0037A1"/>
<path d="M52.7961 8.24951H69.2953V11.5493H52.7961V8.24951Z" fill="#0037A1"/>
<path d="M26.3974 89.0953C26.7455 89.0953 27.0937 88.9865 27.3873 88.7654L34.6684 83.3041C43.0781 76.9982 48.7142 67.8246 50.5406 57.4747L52.7713 44.8347C52.8951 44.1318 52.5535 43.4273 51.9233 43.0923L27.1745 29.893C26.6894 29.634 26.107 29.634 25.6219 29.893L0.873172 43.0923C0.242904 43.4289 -0.0986292 44.1318 0.0251146 44.8347L2.23765 57.3856C4.04596 67.6431 9.61114 76.7622 17.9053 83.0649L25.4008 88.7604C25.6945 88.9832 26.046 89.0953 26.3974 89.0953ZM5.48634 56.8114L3.48169 45.4402L26.3974 33.2176L49.3131 45.4402L47.2903 56.9005C45.6107 66.4222 40.425 74.8615 32.6885 80.6643L26.404 85.3781L19.9 80.4366C12.2692 74.6388 7.15111 66.2489 5.48634 56.8114Z" fill="#E93123"/>
<path d="M32.7248 77.1238C38.9813 72.4314 43.1738 65.6074 44.5333 57.9072L46.17 48.6379C46.2938 47.9351 45.9522 47.2306 45.322 46.8956L37.0691 42.4937L35.5165 45.4058L42.7134 49.2451L41.2846 57.3347C40.0719 64.2082 36.3299 70.2981 30.7466 74.4872L26.404 77.7441L21.8997 74.3206C16.3923 70.1364 12.6981 64.0812 11.497 57.2703L10.0797 49.2435L17.275 45.4058L15.7224 42.4937L7.47119 46.894C6.84093 47.2306 6.49939 47.9334 6.62314 48.6363L8.24501 57.8395C9.59134 65.4704 13.731 72.2565 19.9017 76.9456L25.3992 81.1215C25.6945 81.3459 26.046 81.4581 26.3974 81.4581C26.7455 81.4581 27.0937 81.3492 27.3874 81.1281L32.7248 77.1238Z" fill="#E93123"/>
<path d="M26.3958 40.5415L32.2216 43.6483L33.7742 40.7362L27.1712 37.2153C26.6861 36.9562 26.1037 36.9562 25.6186 37.2153L19.0206 40.7345L20.5732 43.6467L26.3958 40.5415Z" fill="#E93123"/>
<path d="M24.6848 65.9964H24.7475C25.2226 65.9964 25.6747 65.7918 25.9882 65.4338L37.5376 52.2345L35.0545 50.0615L24.8448 61.7297L21.1177 56.7569L18.4778 58.7368L23.4275 65.3365C23.7262 65.7341 24.1881 65.9766 24.6848 65.9964Z" fill="#E93123"/>
<path d="M24.7474 46.1978H28.0473V49.4976H24.7474V46.1978Z" fill="#E93123"/>
<path d="M24.7474 69.2964H28.0473V72.5962H24.7474V69.2964Z" fill="#E93123"/>
</svg>

<svg width="99" height="106" fill="none" xmlns="http://www.w3.org/2000/svg">
    <path d="M95.694 0H26.397c-1.82 0-3.3 1.48-3.3 3.3v23.099h3.3v-23.1h13.2v6.6h-8.25c-.91 0-1.65.74-1.65 1.65V26.4h3.3v-13.2h6.6v3.3c0 1.82 1.48 3.3 3.3 3.3h36.298c1.82 0 3.3-1.48 3.3-3.3v-3.3h6.6v39.598h3.3V11.55c0-.91-.74-1.65-1.65-1.65h-8.25V3.3h13.199v98.996H26.397v-9.9h-3.3v11.55c0 .911.74 1.65 1.65 1.65h70.947c1.82 0 3.3-1.48 3.3-3.3V3.3c0-1.82-1.48-3.3-3.3-3.3Zm-16.5 16.5H42.898V3.3h36.298v13.2Z" fill="#0037A1"/>
    <path d="M92.394 56.097h-3.3v23.099H72.595c-.91 0-1.65.74-1.65 1.65v14.85H32.997v-3.3h-3.3v4.95c0 .91.74 1.649 1.65 1.649h41.248a1.716 1.716 0 0 0 .276-.023l.026-.005.031-.007c.015-.003.03-.005.043-.01.005-.001.009-.001.013-.003.045-.011.09-.023.134-.038l.005-.001a1.385 1.385 0 0 0 .272-.12l.004-.002.06-.037.025-.016c.014-.009.027-.017.04-.027l.02-.015.041-.03.038-.029.023-.018.06-.051 18.149-16.5c.028-.024.054-.05.079-.077l.021-.023c.022-.023.043-.048.063-.073l.011-.013c.024-.028.045-.058.065-.086.007-.008.011-.016.018-.026.017-.023.031-.048.046-.073.005-.008.01-.014.013-.023a.99.99 0 0 0 .05-.094l.013-.026a3.68 3.68 0 0 0 .035-.078l.011-.028.037-.102.005-.015c.01-.031.018-.063.026-.094.002-.008.003-.016.007-.025a1.64 1.64 0 0 0 .034-.22l.002-.026.005-.092V56.098h-.002ZM74.245 82.496h12.23l-8.011 7.284-4.219 3.835v-11.12ZM46.196 8.25h3.3v3.3h-3.3v-3.3ZM72.595 8.25h3.3v3.3h-3.3v-3.3ZM80.845 26.398H42.897c-.911 0-1.65.74-1.65 1.65v6.6h3.3v-4.95h34.648v23.1H54.446v3.299h26.399c.91 0 1.65-.74 1.65-1.65V28.048c0-.91-.74-1.65-1.65-1.65ZM52.796 62.697h18.15v3.3h-18.15v-3.3Z" fill="#0037A1"/>
    <path d="M74.245 62.697h9.9v3.3h-9.9v-3.3ZM47.846 72.596h18.15v3.3h-18.15v-3.3ZM69.295 72.596h14.85v3.3h-14.85v-3.3ZM39.597 82.496h28.048v3.3H39.597v-3.3ZM52.796 8.25h16.5v3.3h-16.5v-3.3Z" fill="#0037A1"/>
    <path d="M26.397 89.095c.349 0 .697-.108.99-.33l7.281-5.46a41.101 41.101 0 0 0 15.873-25.83l2.23-12.64a1.65 1.65 0 0 0-.848-1.743L27.174 29.893a1.648 1.648 0 0 0-1.552 0L.873 43.093a1.65 1.65 0 0 0-.848 1.742l2.213 12.55a41.131 41.131 0 0 0 15.667 25.68l7.496 5.695c.294.223.645.335.996.335ZM5.487 56.811l-2.005-11.37 22.915-12.223L49.313 45.44 47.29 56.9a37.817 37.817 0 0 1-14.602 23.764l-6.284 4.714-6.504-4.941A37.841 37.841 0 0 1 5.486 56.81Z" fill="#E93123"/>
    <path d="M32.725 77.124a30.584 30.584 0 0 0 11.808-19.217l1.637-9.27a1.65 1.65 0 0 0-.848-1.741l-8.253-4.402-1.553 2.912 7.197 3.84-1.428 8.089a27.299 27.299 0 0 1-10.538 17.152l-4.343 3.257-4.504-3.423a27.308 27.308 0 0 1-10.403-17.05l-1.417-8.028 7.195-3.837-1.553-2.912-8.25 4.4a1.65 1.65 0 0 0-.849 1.742l1.622 9.203a30.61 30.61 0 0 0 11.657 19.107l5.497 4.175a1.647 1.647 0 0 0 1.988.007l5.338-4.004Z" fill="#E93123"/>
    <path d="m26.396 40.541 5.826 3.107 1.552-2.912-6.603-3.52a1.648 1.648 0 0 0-1.552 0l-6.598 3.518 1.552 2.913 5.823-3.105ZM24.685 65.996h.063c.475 0 .927-.204 1.24-.562l11.55-13.2-2.483-2.172-10.21 11.668-3.727-4.973-2.64 1.98 4.95 6.6c.298.397.76.64 1.257.66ZM24.747 46.198h3.3v3.3h-3.3v-3.3ZM24.747 69.296h3.3v3.3h-3.3v-3.3Z" fill="#E93123"/>
</svg>
